X: 4
T: King Of The Fairies
R: hornpipe
M: 4/4
L: 1/8
K: Emin
efed B2B2|efed B2B2|fgaf A2d2|fgaf A3z|b2gb a2fa|g2eg f3z|edef gfed|e2ff2g2z2|efed B2B2|efed B2B2|dcBA cBAG|FGAF D2EF|GFGA BABd|edef g2e2|dcBA BAGF| E 3(DEF E3z||


Tune 475	Setting 26442

